X: 1263
T: Beth's Fiddle Scarf
C:Dave Alleway
B: australian traditional tunes wiki
M:4/4
L:1/8
R: Reel
Q: 1/4=100
K:D
V:1 
"D"FddF "G"GddG | "D"Fddcd2ef | "G"gfed "A7"ceag | "D"f/e/d ec "A7"dcBA |
"D"FddF "G"GddG | "D"Fddcd2ef |"G" gfed "A7"ceag|1"D" f/e/d"A7"ec"D"d4:|2 "A7"f/e/d "D"ecd2ag||
|:"D"faaf "A7"eaae |"G"daad "A"caac |"G" BggB "D"Affa |"A7"g/f/e "D"fd "A7"edcB |
"D"daad "A7"caac | "G"BggB "A"AffA |"G"GBdg "D"f/e/d ec|1 "A7"dAFA "D"D2 ag:|2 "A7"dAFA "D"D4 ||
% abcbook-tune_id 6342d53ac9e7727cc77ff003


% abcbook-boost 0
% abcbook-tablature 
% abcbook-transpose 
% abcbook-lastupdated 1665324356580
% abcbook-soundfonts 
% abcbook-repeats 1
% NFF Book 2017

